X: 105
%
U:~=!turn!
T: Clach na cùdain
T: The Stone of the Tub, or Keystone of Inverness
C:
O:Scotland
B:Keith Norman MacDonald : "The Skye collection of the best reels & strathspeys extant" : 1887
Z:Ralph Palmer
R:Strathspey
M:C
L:1/8
K:E dorian
A, !segno!| D<D{DE}F>E {FE}D2 D<A, | D<DF>A B>AF>d | D<D{DE}F>E {FE}D2 D>F | {/F}G>A,F>A, E>A,C<E :|
{/c}d>fA>f d/2e/2f/2g/2 a>f | {/c}d>fA>f {/c}d>fA>f | {/c}d>fA>f {/c}(d/2e/2).f/2.g/2 a>f | {/f}g>Af>A e>Ac>e |
{/c}dfAf {/c}d/2e/2f/2g/2 a>f | {/c}dfAf {/c}d>A{/c}d>f | B<gA<f G<eF<d | {/F}G>A,F>A, E<A,C<E !segno!|]
W:The Key stone of Inverness.


